assets/svg/1F4D8.svg

<svg xmlns="http://www.w3.org/2000/svg" viewBox="0 0 64 64" enable-background="new 0 0 64 64"><g transform="translate(6)"><path d="m.205 58.09c0 0 1.88 7.229 13.638 5.381l2-4.841-3.382-3.676-9.366-3.089-2.892 6.225" fill="#34484c"/><path d="m37.677 44.538c0 2.561-1.321 3.233-4.642 4.64l-28.395 11.986c-2.561 0-4.64-2.075-4.64-4.642v-39.892c0-2.567 1.506-3.418 4.64-4.644l28.395-11.986c2.564 0 4.642 2.079 4.642 4.638v39.9" fill="#1ea0cd"/><path d="m2.581 60.674c0 0 10.643 3.055 11.262 2.792.622-.264-.396-4.615-.396-4.615l-3.849-4.147-3.583-.164-.63.894-2.804 5.24" fill="#34484c"/><path d="m32.368 2.76l-31.498 13.236 1.476 8.479 4.686.469 15.648-2.52 9.729-5.099 7.162-9.808c-1.565-2.807-3.862-4.544-7.203-4.757" fill="#f4f5f5"/><path d="m9.214 18.928c0-.74.128-1.337.384-1.841-3.221-.299-6.265-1.233-8.489-3.235-.735.677-1.097 1.52-1.097 2.778v39.893c0 2.566 2.075 4.642 4.638 4.642l4.584-1.935c-.012-.135-.021-.267-.021-.405v-39.897z" fill="#34484c"/><path d="m47.699 48.47c0 2.566-1.316 3.235-4.642 4.642l-29.21 10.357c-2.562 0-4.642-2.078-4.642-4.642v-39.896c0-2.563 1.508-3.417 4.642-4.64l29.21-10.358c2.561 0 4.642 2.075 4.642 4.642v39.895z" fill="#57c6e9"/><path d="m26.06 58.08c-2.562 0-4.642-2.077-4.642-4.64v-39.896c0-1.431.677-1.792 1.636-2.516l-9.21 3.264c-3.133 1.223-4.642 2.077-4.642 4.64v39.896c0 2.563 2.079 4.642 4.642 4.642l29.21-10.357c1.374-.582 2.402-1.039 3.142-1.557l-20.14 6.524" fill="#27a8e0"/><g fill="#198ba9"><path d="m35.604 16.11c.126.327-.037.691-.361.813l-15.536 5.991c-.325.126-.687-.037-.813-.357l0 0c-.126-.328.039-.687.36-.815l15.538-5.989c.324-.124.686.034.812.357l0 0"/><path d="m35.604 18.967c.126.321-.037.687-.361.809l-15.536 5.991c-.325.126-.687-.037-.813-.36l0 0c-.126-.323.039-.687.36-.811l15.538-5.991c.324-.124.686.039.812.362l0 0"/><path d="m30.32 23.954c.122.325.045.654-.174.74l-10.614 4.091c-.219.085-.498-.105-.624-.429l0 0c-.124-.327-.048-.658.173-.74l10.61-4.093c.223-.084.502.108.629.431l0 0"/></g></g></svg>

<?xml version="1.0" encoding="UTF-8" standalone="no"?>
<!-- Generator: Adobe Illustrator 16.0.0, SVG Export Plug-In . SVG Version: 6.00 Build 0)  -->

<svg
   xmlns:dc="http://purl.org/dc/elements/1.1/"
   xmlns:cc="http://creativecommons.org/ns#"
   xmlns:rdf="http://www.w3.org/1999/02/22-rdf-syntax-ns#"
   xmlns:svg="http://www.w3.org/2000/svg"
   xmlns="http://www.w3.org/2000/svg"
   xmlns:sodipodi="http://sodipodi.sourceforge.net/DTD/sodipodi-0.dtd"
   xmlns:inkscape="http://www.inkscape.org/namespaces/inkscape"
   version="1.1"
   id="Layer_1"
   x="0px"
   y="0px"
   width="64px"
   height="64px"
   viewBox="0 0 64 64"
   enable-background="new 0 0 64 64"
   xml:space="preserve"
   inkscape:version="0.48.5 r10040"
   sodipodi:docname="1F4D8.svg"><metadata
   id="metadata41731"><rdf:RDF><cc:Work
       rdf:about=""><dc:format>image/svg+xml</dc:format><dc:type
         rdf:resource="http://purl.org/dc/dcmitype/StillImage" /></cc:Work></rdf:RDF></metadata><defs
   id="defs41729" /><sodipodi:namedview
   pagecolor="#ffffff"
   bordercolor="#666666"
   borderopacity="1"
   objecttolerance="10"
   gridtolerance="10"
   guidetolerance="10"
   inkscape:pageopacity="0"
   inkscape:pageshadow="2"
   inkscape:window-width="640"
   inkscape:window-height="480"
   id="namedview41727"
   showgrid="false"
   inkscape:zoom="3.6875"
   inkscape:cx="32"
   inkscape:cy="32"
   inkscape:window-x="0"
   inkscape:window-y="0"
   inkscape:window-maximized="0"
   inkscape:current-layer="Layer_1" />
<g
   id="g41705"
   transform="translate(6,0)">
	<path
   d="m 0.205,58.085 c 0,0 1.88,7.229 13.638,5.381 L 15.845,58.625 12.463,54.949 3.097,51.86 0.205,58.085 z"
   id="path41707"
   inkscape:connector-curvature="0"
   style="fill:#34484c" />
	<path
   d="m 37.677,44.538 c 0,2.561 -1.321,3.233 -4.642,4.64 L 4.64,61.164 C 2.079,61.164 0,59.089 0,56.522 V 16.63 C 0,14.063 1.506,13.212 4.64,11.986 L 33.035,0 c 2.564,0 4.642,2.079 4.642,4.638 v 39.9 z"
   id="path41709"
   inkscape:connector-curvature="0"
   style="fill:#1ea0cd" />
	<path
   d="m 2.581,60.674 c 0,0 10.643,3.055 11.262,2.792 0.622,-0.264 -0.396,-4.615 -0.396,-4.615 L 9.598,54.704 6.015,54.54 l -0.63,0.894 -2.804,5.24 z"
   id="path41711"
   inkscape:connector-curvature="0"
   style="fill:#34484c" />
	<path
   d="M 32.368,2.76 0.87,15.996 l 1.476,8.479 4.686,0.469 15.648,-2.52 9.729,-5.099 7.162,-9.808 C 38.006,4.71 35.709,2.973 32.368,2.76 z"
   id="path41713"
   inkscape:connector-curvature="0"
   style="fill:#f4f5f5" />
	<path
   d="m 9.214,18.928 c 0,-0.74 0.128,-1.337 0.384,-1.841 C 6.377,16.788 3.333,15.854 1.109,13.852 0.374,14.529 0.012,15.372 0.012,16.63 v 39.893 c 0,2.566 2.075,4.642 4.638,4.642 L 9.234,59.23 C 9.222,59.095 9.213,58.963 9.213,58.825 V 18.928 z"
   id="path41715"
   inkscape:connector-curvature="0"
   style="fill:#34484c" />
	<path
   d="m 47.699,48.467 c 0,2.566 -1.316,3.235 -4.642,4.642 L 13.843,63.466 c -2.562,0 -4.642,-2.078 -4.642,-4.642 V 18.928 c 0,-2.563 1.508,-3.417 4.642,-4.64 L 43.058,3.93 c 2.561,0 4.642,2.075 4.642,4.642 v 39.895 z"
   id="path41717"
   inkscape:connector-curvature="0"
   style="fill:#57c6e9" />
	<path
   d="m 26.059,58.077 c -2.562,0 -4.642,-2.077 -4.642,-4.64 V 13.541 c 0,-1.431 0.677,-1.792 1.636,-2.516 l -9.21,3.264 c -3.133,1.223 -4.642,2.077 -4.642,4.64 v 39.896 c 0,2.563 2.079,4.642 4.642,4.642 L 43.057,53.11 c 1.374,-0.582 2.402,-1.039 3.142,-1.557 l -20.14,6.524 z"
   id="path41719"
   inkscape:connector-curvature="0"
   style="fill:#27a8e0" />
	<path
   d="m 35.604,16.105 c 0.126,0.327 -0.037,0.691 -0.361,0.813 l -15.536,5.991 c -0.325,0.126 -0.687,-0.037 -0.813,-0.357 l 0,0 c -0.126,-0.328 0.039,-0.687 0.36,-0.815 l 15.538,-5.989 c 0.324,-0.124 0.686,0.034 0.812,0.357 l 0,0 z"
   id="path41721"
   inkscape:connector-curvature="0"
   style="fill:#198ba9" />
	<path
   d="m 35.604,18.967 c 0.126,0.321 -0.037,0.687 -0.361,0.809 l -15.536,5.991 c -0.325,0.126 -0.687,-0.037 -0.813,-0.36 l 0,0 c -0.126,-0.323 0.039,-0.687 0.36,-0.811 l 15.538,-5.991 c 0.324,-0.124 0.686,0.039 0.812,0.362 l 0,0 z"
   id="path41723"
   inkscape:connector-curvature="0"
   style="fill:#198ba9" />
	<path
   d="m 30.324,23.954 c 0.122,0.325 0.045,0.654 -0.174,0.74 L 19.536,28.785 C 19.317,28.87 19.038,28.68 18.912,28.356 l 0,0 c -0.124,-0.327 -0.048,-0.658 0.173,-0.74 l 10.61,-4.093 c 0.223,-0.084 0.502,0.108 0.629,0.431 l 0,0 z"
   id="path41725"
   inkscape:connector-curvature="0"
   style="fill:#198ba9" />
</g>
</svg>
